X:1
T:Title
%%score { 1 | ( 2 3 4 ) }
L:1/8
Q:1/4=120
M:2/2
K:C
V:1 treble nm="Part_1"
V:2 treble 
V:3 treble 
V:4 treble 
V:1
 x8 | x8 | x8 | x8 ||[K:Bb][K:treble] B/c/f/c/ B/c/f/c/ c/c/d/c/ B/B/A/A/ | %5
 B/c/f/c/ B/c/f/c/ c/c/d/c/ B/B/A/A/ | B/c/f/c/ B/c/f/c/ c/c/d/c/ B/B/A/A/ | %7
 B/c/f/c/ B/c/f/c/ c/c/d/c/ B/B/A/A/ | B/c/f/c/ B/c/f/c/ c/c/d/c/ B/B/A/A/ | B3/2B3/2c3/2c3/2 z2 | %10
 F3/2B3/2A3/2G3/2GF | B3/2B3/2c3/2c3/2 z2 | e3/2d3/2c3/2G3/2GF | B3/2B3/2c3/2c3/2 z2 | %14
 F3/2B3/2A3/2G3/2GF | B3/2B3/2c3/2c3/2 z2 | e3/2d3/2B3/2F3/2AB | B3/2B3/2c3/2c3/2 z2 | %18
 F3/2B3/2A3/2G3/2GF | B3/2B3/2c3/2c3/2 z2 | e3/2d3/2B3/2F3/2AB | z8 | z8 | z8 | z8 | %25
 G3/2B3/2B3/2B3/2B3/2 z | F3/2B3/2A3/2G3/2G3/2 z | G3/2B3/2B3/2B3/2B3/2 x/ | %28
 e3/2d3/2B3/2F3/2A3/2 z | G3/2B3/2B3/2B3/2B3/2 x/ | %30
 F3/2B3/2A3/2G3/2G[K:bass] B,,3/2D,3/2D,3/2D,3/2D,3/2 | G,3/2F,3/2D,3/2A,,3/2C, x | %32
 [B,B]3/2[B,B]3/2[B,B]3/2[B,B]3/2 z2 | %33
 F3/2B3/2[I:staff +1][F,,C,F,A]3/2[F,,C,F,A]3/16[I:staff -1][B,B]/[Cc] x29/16 | %34
 [Dd]3/2[Dd]3/2[B,B]3/2[B,B]3/2 z2 | [Ee]3/2[Dd]3/2[A,B]3/2F3/2[B,G][CA] | x8 | x8 | x8 | %39
 !^![B,B]3/2[B,B]3/2[B,B]3/2[B,B]3/2 z2 | F3/2B3/2[A,A]3/2[A,A]3/2[B,B][Cc] | %41
 [Dd]3/2[Dd]3/2[B,B]3/2[B,B]3/2 z2 | [Ee]3/2[Dd]3/2[B,B]3/2F3/2[B,G][CA] | x8 | x8 | x8 | %46
 B3/2B3/2c3/2c3/2 z2 | F3/2B3/2A3/2G3/2GF | B3/2B3/2c3/2c3/2 z2 | e3/2d3/2B3/2F3/2AB | %50
 B3/2B3/2c3/2c3/2 x2 | !^!F3/2B3/2A3/2G3/2GF | B3/2B3/2c3/2c3/2 z2 | e'3/2d'3/2b3/2f3/2 x2 |: %54
 B3/2B3/2c3/2c3/2 z2 | F3/2B3/2A3/2G3/2GF | B3/2B3/2c3/2c3/2 z2 | e3/2d3/2B3/2F3/2AB | %58
 B3/2B3/2c3/2c3/2 z2 | !>!F3/2B3/2A3/2G3/2GF | B3/2B3/2c3/2c3/2 z2 | e3/2d3/2B3/2F3/2AB :| %62
 b3/2b3/2b3/2b3/2b3/2 z |] b3/2b3/2a3/2a3/2bc' | d'3/2d'3/2b3/2b3/2b3/2 x/ | %65
 e'3/2d'3/2c'3/2f3/2ga | b3/2b3/2b3/2b3/2b3/2 x/ | b3/2b3/2a3/2a3/2bc' | %68
 d'3/2d'3/2b3/2b3/2b3/2 x/ | e'3/2d'3/2c'3/2b3/2ab |] %70
V:2
 x8 | x8 | x8 | x8 ||[K:Bb][K:bass] F,8 | B,8 | E,8 | C,8 | F,8 | z8 | z8 | z8 | z8 | %13
 G,2 G,2 E,2 x2 | B,2 B,2 F,F,F,F, | G,2 G,2 E,2 E,E,/E,/ | B,2 B,2 F,2 A,B, | %17
 G,2 G,2 E,2 E,E,/E,/ | B,2 B,2 F,F,F,F, | G,2 G,2 E,2 x2 | B,2 B,2 F,2 A,B, | %21
 [G,,D,G,]3 [E,,B,,E,]4 z | [B,,F,B,]3 [F,,C,F,]4 z | [G,,D,G,]3 [E,,B,,E,]4 z | %24
 .[C,,G,,C,]3 [F,,C,F,]4 z | [G,,D,G,]3 [E,,B,,E,]4 z x/ | [B,,F,B,]3 [F,,C,F,]4 z x/ | %27
 [G,,D,G,]3 [E,,B,,E,]4 z | [C,,G,,C,]3 [F,,C,F,]4 z x/ | x8 | x29/2 | x8 | %32
 [G,,D,G,]3/2[G,,D,G,]3/2[E,,B,,E,]3/2[E,,B,,E,]3/2[E,,B,,E,]3/2 x/ | %33
 [B,,F,B,]3/2 [B,,F,B,]/>[F,,C,F,A]/ x35/16 [F,,C,F,]3/2 z x13/16 | %34
 [G,,D,G,]3/2[G,,D,G,]3/2[E,,B,,E,]3/2[E,,B,,E,]3/2[E,,B,,E,]3/2 x/ | %35
 [C,,G,,C,]3/2[C,,G,,C,]3/2[F,,C,F,]3/2[F,,C,F,]3/2[F,,C,F,]3/2 x/ | x8 | x8 | x8 | %39
 [G,,D,G,]3 [E,,B,,E,]4 z | [B,,F,B,]3 [F,,C,F,]4 z | [G,,D,G,]3 [E,,B,,E,]4 z | %42
 [C,,G,,C,]3 [F,,C,F,]4 z | x8 | x8 | x8 | G,2 G,2 E,2 E,E,/E,/ | B,2 B,2 F,F,F,F, | %48
 G,2 G,2 E,2 x2 | B,2 x F,2 x3 | G,2 x E,2 x3 | B,2 B,2 F,F,F,F, | G,2 G,2 E,2 E,E,/E,/ | %53
 z3/2 B, z F, z [B,,,B,,][F,,,F,,] x/ |: G,2 G,2 E,2 E,E,/E,/ | %55
 B,2 B,2 F,F, [F,,C,F,]/[F,,C,F,]/[F,,C,F,]/[F,,C,F,]/ | G,2 G,2 E,2 E,E,/E,/ | B,2 B,2 F,2 A,B, | %58
 G,2 G,2 E,2 E,E,/E,/ | B,2 B,2 [F,,C,F,][F,,C,F,][F,,C,F,][F,,C,F,] | G,2 G,2 E,2 E,E,/E,/ | %61
 B,2 B,2 F,F, [F,,C,F,]/[F,,C,F,]/[F,,C,F,]/[F,,C,F,]/ :| x3 [E,B,E]4 z x/ |] %63
 [B,,F,B,]3 [F,,C,F,]4 z | [G,,D,G,]3 [E,,B,,E,]4 z | [C,,G,,A,,C,C,]3 [F,,C,F,]4 z | %66
 x3 [E,B,E]4 z | [B,FB]3 [F,CF]4 z | x3 [E,B,E]4 z | [C,G,C]3 [F,CF]4 z |] %70
V:3
 x8 | x8 | x8 | x8 ||[K:Bb][K:bass] C,8 | F,8 | B,,8 | G,,8 | C,8 | x8 | x8 | x8 | x8 | %13
 x9/2 E,E,/ E,/ x3/2 | x8 | x8 | x8 | x8 | x8 | x9/2 E,E,/ E,/ x3/2 | x8 | x8 | x8 | x8 | x8 | %25
 x17/2 | x17/2 | x8 | x17/2 | x8 | x29/2 | x8 | x8 | x8 | x8 | x8 | x8 | x8 | x8 | x8 | x8 | x8 | %42
 x8 | x8 | x8 | x8 | x8 | x8 | x9/2 E,E,/ E,/ x3/2 | x3/2 B,2 x A,B, x3/2 | %50
 x3/2 G,2 E,E,/E,/ x5/2 | x8 | x8 | x3 z x4 |: x8 | x8 | x8 | x8 | x8 | x8 | x8 | x8 :| x17/2 |] %63
 x8 | x8 | x8 | x8 | x8 | x8 | x8 |] %70
V:4
 x8 | x8 | x8 | x8 ||[K:Bb][K:bass] F,,8 | B,,8 | E,,8 | C,,8 | F,,8 | x8 | x8 | x8 | x8 | x8 | %14
 x8 | x8 | x8 | x8 | x8 | x8 | x8 | x8 | x8 | x8 | x8 | x17/2 | x17/2 | x8 | x17/2 | x8 | x29/2 | %31
 x8 | x8 | x8 | x8 | x8 | x8 | x8 | x8 | x8 | x8 | x8 | x8 | x8 | x8 | x8 | x8 | x8 | x8 | x8 | %50
 x7/2 z2 x5/2 | x8 | x8 | x11/2 z2 x/ |: x8 | x8 | x8 | x8 | x8 | x8 | x8 | x8 :| x17/2 |] x8 | %64
 x8 | x8 | x8 | x8 | x8 | x8 |] %70

